static/img/in-field/radios.svg

<svg width="1088" height="158" viewBox="0 0 1088 158" fill="none" xmlns="http://www.w3.org/2000/svg">
<rect width="1087" height="158" transform="translate(0.5)" fill="#F1F1F6"/>
<path fill-rule="evenodd" clip-rule="evenodd" d="M498.25 46.5C498.25 38.91 504.41 32.75 512 32.75C519.59 32.75 525.75 38.91 525.75 46.5C525.75 54.09 519.59 60.25 512 60.25C504.41 60.25 498.25 54.09 498.25 46.5ZM501 46.5C501 52.5775 505.922 57.5 512 57.5C518.077 57.5 523 52.5775 523 46.5C523 40.4225 518.077 35.5 512 35.5C505.922 35.5 501 40.4225 501 46.5Z" fill="#90939F"/>
<g clip-path="url(#clip0_5579_88328)">
<path d="M541.659 55V39.2949H543.485V53.3457H550.414V55H541.659ZM560.311 55L559.956 53.3242H559.87C559.283 54.0618 558.696 54.5632 558.108 54.8281C557.528 55.0859 556.801 55.2148 555.928 55.2148C554.76 55.2148 553.844 54.9141 553.178 54.3125C552.519 53.7109 552.189 52.8551 552.189 51.7451C552.189 49.3675 554.091 48.1214 557.894 48.0068L559.892 47.9424V47.2119C559.892 46.2881 559.691 45.6077 559.29 45.1709C558.896 44.7269 558.262 44.5049 557.389 44.5049C556.408 44.5049 555.298 44.8057 554.059 45.4072L553.511 44.043C554.091 43.7279 554.725 43.4808 555.412 43.3018C556.107 43.1227 556.801 43.0332 557.496 43.0332C558.9 43.0332 559.938 43.3447 560.611 43.9678C561.292 44.5908 561.632 45.5898 561.632 46.9648V55H560.311ZM556.282 53.7432C557.392 53.7432 558.262 53.4388 558.893 52.8301C559.53 52.2214 559.849 51.3691 559.849 50.2734V49.21L558.065 49.2852C556.647 49.3353 555.623 49.5573 554.993 49.9512C554.37 50.3379 554.059 50.943 554.059 51.7666C554.059 52.4111 554.252 52.9017 554.639 53.2383C555.033 53.5749 555.58 53.7432 556.282 53.7432ZM571.045 43.0332C572.592 43.0332 573.791 43.5632 574.644 44.623C575.503 45.6758 575.933 47.1689 575.933 49.1025C575.933 51.0361 575.499 52.54 574.633 53.6143C573.773 54.6813 572.577 55.2148 571.045 55.2148C570.279 55.2148 569.577 55.0752 568.939 54.7959C568.309 54.5094 567.779 54.0726 567.35 53.4854H567.221L566.845 55H565.566V38.2852H567.35V42.3457C567.35 43.2552 567.321 44.0716 567.264 44.7949H567.35C568.18 43.6204 569.412 43.0332 571.045 43.0332ZM570.787 44.5264C569.57 44.5264 568.692 44.8773 568.155 45.5791C567.618 46.2738 567.35 47.4482 567.35 49.1025C567.35 50.7568 567.625 51.9421 568.177 52.6582C568.728 53.3672 569.613 53.7217 570.83 53.7217C571.926 53.7217 572.742 53.3242 573.279 52.5293C573.816 51.7272 574.085 50.5778 574.085 49.0811C574.085 47.5485 573.816 46.4062 573.279 45.6543C572.742 44.9023 571.911 44.5264 570.787 44.5264ZM584.282 55.2148C582.542 55.2148 581.167 54.6849 580.157 53.625C579.155 52.5651 578.653 51.0934 578.653 49.21C578.653 47.3122 579.119 45.8047 580.05 44.6875C580.988 43.5703 582.245 43.0117 583.82 43.0117C585.296 43.0117 586.463 43.4987 587.322 44.4727C588.182 45.4395 588.611 46.7178 588.611 48.3076V49.4355H580.501C580.537 50.8177 580.884 51.8669 581.543 52.583C582.209 53.2992 583.144 53.6572 584.347 53.6572C585.614 53.6572 586.868 53.3923 588.106 52.8623V54.4521C587.476 54.7243 586.878 54.9176 586.312 55.0322C585.754 55.154 585.077 55.2148 584.282 55.2148ZM583.799 44.5049C582.854 44.5049 582.098 44.8128 581.532 45.4287C580.974 46.0446 580.644 46.8968 580.544 47.9854H586.699C586.699 46.861 586.449 46.0016 585.947 45.4072C585.446 44.8057 584.73 44.5049 583.799 44.5049ZM593.695 55H591.912V38.2852H593.695V55Z" fill="#464B52"/>
</g>
<g clip-path="url(#clip1_5579_88328)">
<path fill-rule="evenodd" clip-rule="evenodd" d="M511.5 98.6667C504.14 98.6667 498.167 104.64 498.167 112C498.167 119.36 504.14 125.333 511.5 125.333C518.86 125.333 524.833 119.36 524.833 112C524.833 104.64 518.86 98.6667 511.5 98.6667ZM511.5 105.333C507.82 105.333 504.833 108.32 504.833 112C504.833 115.68 507.82 118.667 511.5 118.667C515.18 118.667 518.167 115.68 518.167 112C518.167 108.32 515.18 105.333 511.5 105.333ZM500.833 112C500.833 117.893 505.607 122.667 511.5 122.667C517.393 122.667 522.167 117.893 522.167 112C522.167 106.107 517.393 101.333 511.5 101.333C505.607 101.333 500.833 106.107 500.833 112Z" fill="#217CBB"/>
<path d="M537.659 121V105.295H539.485V119.346H546.414V121H537.659ZM556.311 121L555.956 119.324H555.87C555.283 120.062 554.696 120.563 554.108 120.828C553.528 121.086 552.801 121.215 551.928 121.215C550.76 121.215 549.844 120.914 549.178 120.312C548.519 119.711 548.189 118.855 548.189 117.745C548.189 115.368 550.091 114.121 553.894 114.007L555.892 113.942V113.212C555.892 112.288 555.691 111.608 555.29 111.171C554.896 110.727 554.262 110.505 553.389 110.505C552.408 110.505 551.298 110.806 550.059 111.407L549.511 110.043C550.091 109.728 550.725 109.481 551.412 109.302C552.107 109.123 552.801 109.033 553.496 109.033C554.9 109.033 555.938 109.345 556.611 109.968C557.292 110.591 557.632 111.59 557.632 112.965V121H556.311ZM552.282 119.743C553.392 119.743 554.262 119.439 554.893 118.83C555.53 118.221 555.849 117.369 555.849 116.273V115.21L554.065 115.285C552.647 115.335 551.623 115.557 550.993 115.951C550.37 116.338 550.059 116.943 550.059 117.767C550.059 118.411 550.252 118.902 550.639 119.238C551.033 119.575 551.58 119.743 552.282 119.743ZM567.045 109.033C568.592 109.033 569.791 109.563 570.644 110.623C571.503 111.676 571.933 113.169 571.933 115.103C571.933 117.036 571.499 118.54 570.633 119.614C569.773 120.681 568.577 121.215 567.045 121.215C566.279 121.215 565.577 121.075 564.939 120.796C564.309 120.509 563.779 120.073 563.35 119.485H563.221L562.845 121H561.566V104.285H563.35V108.346C563.35 109.255 563.321 110.072 563.264 110.795H563.35C564.18 109.62 565.412 109.033 567.045 109.033ZM566.787 110.526C565.57 110.526 564.692 110.877 564.155 111.579C563.618 112.274 563.35 113.448 563.35 115.103C563.35 116.757 563.625 117.942 564.177 118.658C564.728 119.367 565.613 119.722 566.83 119.722C567.926 119.722 568.742 119.324 569.279 118.529C569.816 117.727 570.085 116.578 570.085 115.081C570.085 113.549 569.816 112.406 569.279 111.654C568.742 110.902 567.911 110.526 566.787 110.526ZM580.282 121.215C578.542 121.215 577.167 120.685 576.157 119.625C575.155 118.565 574.653 117.093 574.653 115.21C574.653 113.312 575.119 111.805 576.05 110.688C576.988 109.57 578.245 109.012 579.82 109.012C581.296 109.012 582.463 109.499 583.322 110.473C584.182 111.439 584.611 112.718 584.611 114.308V115.436H576.501C576.537 116.818 576.884 117.867 577.543 118.583C578.209 119.299 579.144 119.657 580.347 119.657C581.614 119.657 582.868 119.392 584.106 118.862V120.452C583.476 120.724 582.878 120.918 582.312 121.032C581.754 121.154 581.077 121.215 580.282 121.215ZM579.799 110.505C578.854 110.505 578.098 110.813 577.532 111.429C576.974 112.045 576.644 112.897 576.544 113.985H582.699C582.699 112.861 582.449 112.002 581.947 111.407C581.446 110.806 580.73 110.505 579.799 110.505ZM589.695 121H587.912V104.285H589.695V121Z" fill="#353A40"/>
</g>
<defs>
<clipPath id="clip0_5579_88328">
<rect width="57" height="28" fill="white" transform="translate(539.5 32)"/>
</clipPath>
<clipPath id="clip1_5579_88328">
<rect width="97" height="32" fill="white" transform="translate(495.5 96)"/>
</clipPath>
</defs>
</svg>

<svg width="1088" height="158" fill="none" xmlns="http://www.w3.org/2000/svg"><path fill="#F1F1F6" d="M.5 0h1087v158H.5z"/><path fill-rule="evenodd" clip-rule="evenodd" d="M498.25 46.5c0-7.59 6.16-13.75 13.75-13.75s13.75 6.16 13.75 13.75-6.16 13.75-13.75 13.75-13.75-6.16-13.75-13.75zm2.75 0c0 6.078 4.922 11 11 11 6.077 0 11-4.922 11-11s-4.923-11-11-11c-6.078 0-11 4.922-11 11z" fill="#90939F"/><g clip-path="url(#prefix__clip0_5579_88328)"><path d="M541.659 55V39.295h1.826v14.05h6.929V55h-8.755zm18.652 0l-.355-1.676h-.086c-.587.738-1.174 1.24-1.762 1.504-.58.258-1.307.387-2.18.387-1.168 0-2.084-.3-2.75-.903-.659-.601-.989-1.457-.989-2.567 0-2.377 1.902-3.624 5.705-3.738l1.998-.065v-.73c0-.924-.201-1.604-.602-2.041-.394-.444-1.028-.666-1.901-.666-.981 0-2.091.3-3.33.902l-.548-1.364a8.405 8.405 0 011.901-.741 8.318 8.318 0 012.084-.269c1.404 0 2.442.312 3.115.935.681.623 1.021 1.622 1.021 2.997V55h-1.321zm-4.029-1.257c1.11 0 1.98-.304 2.611-.913.637-.609.956-1.46.956-2.557V49.21l-1.784.075c-1.418.05-2.442.272-3.072.666-.623.387-.934.992-.934 1.816 0 .644.193 1.135.58 1.471.394.337.941.505 1.643.505zm14.763-10.71c1.547 0 2.746.53 3.599 1.59.859 1.053 1.289 2.546 1.289 4.48 0 1.933-.434 3.437-1.3 4.511-.86 1.067-2.056 1.6-3.588 1.6-.766 0-1.468-.139-2.106-.418a3.996 3.996 0 01-1.589-1.31h-.129L566.845 55h-1.279V38.285h1.784v4.06c0 .91-.029 1.727-.086 2.45h.086c.83-1.175 2.062-1.762 3.695-1.762zm-.258 1.493c-1.217 0-2.095.351-2.632 1.053-.537.695-.805 1.87-.805 3.523 0 1.655.275 2.84.827 3.556.551.71 1.436 1.064 2.653 1.064 1.096 0 1.912-.398 2.449-1.193.537-.802.806-1.951.806-3.448 0-1.533-.269-2.675-.806-3.427-.537-.752-1.368-1.128-2.492-1.128zm13.495 10.689c-1.74 0-3.115-.53-4.125-1.59-1.002-1.06-1.504-2.532-1.504-4.415 0-1.898.466-3.405 1.397-4.523.938-1.117 2.195-1.675 3.77-1.675 1.476 0 2.643.487 3.502 1.46.86.968 1.289 2.246 1.289 3.836v1.127h-8.11c.036 1.383.383 2.432 1.042 3.148.666.716 1.601 1.074 2.804 1.074 1.267 0 2.521-.265 3.759-.795v1.59a9.104 9.104 0 01-1.794.58c-.558.122-1.235.183-2.03.183zm-.483-10.71c-.945 0-1.701.308-2.267.924-.558.616-.888 1.468-.988 2.556h6.155c0-1.124-.25-1.983-.752-2.578-.501-.601-1.217-.902-2.148-.902zM593.695 55h-1.783V38.285h1.783V55z" fill="#464B52"/></g><g clip-path="url(#prefix__clip1_5579_88328)"><path fill-rule="evenodd" clip-rule="evenodd" d="M511.5 98.667c-7.36 0-13.333 5.973-13.333 13.333s5.973 13.333 13.333 13.333 13.333-5.973 13.333-13.333-5.973-13.333-13.333-13.333zm0 6.666a6.67 6.67 0 00-6.667 6.667 6.67 6.67 0 006.667 6.667 6.67 6.67 0 006.667-6.667 6.67 6.67 0 00-6.667-6.667zM500.833 112c0 5.893 4.774 10.667 10.667 10.667s10.667-4.774 10.667-10.667-4.774-10.667-10.667-10.667-10.667 4.774-10.667 10.667z" fill="#217CBB"/><path d="M537.659 121v-15.705h1.826v14.051h6.929V121h-8.755zm18.652 0l-.355-1.676h-.086c-.587.738-1.174 1.239-1.762 1.504-.58.258-1.307.387-2.18.387-1.168 0-2.084-.301-2.75-.903-.659-.601-.989-1.457-.989-2.567 0-2.377 1.902-3.624 5.705-3.738l1.998-.065v-.73c0-.924-.201-1.604-.602-2.041-.394-.444-1.028-.666-1.901-.666-.981 0-2.091.301-3.33.902l-.548-1.364a8.409 8.409 0 011.901-.741 8.323 8.323 0 012.084-.269c1.404 0 2.442.312 3.115.935.681.623 1.021 1.622 1.021 2.997V121h-1.321zm-4.029-1.257c1.11 0 1.98-.304 2.611-.913.637-.609.956-1.461.956-2.557v-1.063l-1.784.075c-1.418.05-2.442.272-3.072.666-.623.387-.934.992-.934 1.816 0 .644.193 1.135.58 1.471.394.337.941.505 1.643.505zm14.763-10.71c1.547 0 2.746.53 3.599 1.59.859 1.053 1.289 2.546 1.289 4.48 0 1.933-.434 3.437-1.3 4.511-.86 1.067-2.056 1.601-3.588 1.601a5.2 5.2 0 01-2.106-.419 3.995 3.995 0 01-1.589-1.311h-.129l-.376 1.515h-1.279v-16.715h1.784v4.061c0 .909-.029 1.726-.086 2.449h.086c.83-1.175 2.062-1.762 3.695-1.762zm-.258 1.493c-1.217 0-2.095.351-2.632 1.053-.537.695-.805 1.869-.805 3.524 0 1.654.275 2.839.827 3.555.551.709 1.436 1.064 2.653 1.064 1.096 0 1.912-.398 2.449-1.193.537-.802.806-1.951.806-3.448 0-1.532-.269-2.675-.806-3.427-.537-.752-1.368-1.128-2.492-1.128zm13.495 10.689c-1.74 0-3.115-.53-4.125-1.59-1.002-1.06-1.504-2.532-1.504-4.415 0-1.898.466-3.405 1.397-4.522.938-1.118 2.195-1.676 3.77-1.676 1.476 0 2.643.487 3.502 1.461.86.966 1.289 2.245 1.289 3.835v1.128h-8.11c.036 1.382.383 2.431 1.042 3.147.666.716 1.601 1.074 2.804 1.074 1.267 0 2.521-.265 3.759-.795v1.59a9.077 9.077 0 01-1.794.58c-.558.122-1.235.183-2.03.183zm-.483-10.71c-.945 0-1.701.308-2.267.924-.558.616-.888 1.468-.988 2.556h6.155c0-1.124-.25-1.983-.752-2.578-.501-.601-1.217-.902-2.148-.902zM589.695 121h-1.783v-16.715h1.783V121z" fill="#353A40"/></g><defs><clipPath id="prefix__clip0_5579_88328"><path fill="#fff" transform="translate(539.5 32)" d="M0 0h57v28H0z"/></clipPath><clipPath id="prefix__clip1_5579_88328"><path fill="#fff" transform="translate(495.5 96)" d="M0 0h97v32H0z"/></clipPath></defs></svg>
